static/fa/svgs/solid/code-branch.svg

<svg xmlns="http://www.w3.org/2000/svg" viewBox="0 0 448 512"><!--! Font Awesome Free 6.1.2 by @fontawesome - https://fontawesome.com License - https://fontawesome.com/license/free (Icons: CC BY 4.0, Fonts: SIL OFL 1.1, Code: MIT License) Copyright 2022 Fonticons, Inc. --><path d="M160 80C160 112.8 140.3 140.1 112 153.3V241.1C130.8 230.2 152.7 224 176 224H272C307.3 224 336 195.3 336 160V153.3C307.7 140.1 288 112.8 288 80C288 35.82 323.8 0 368 0C412.2 0 448 35.82 448 80C448 112.8 428.3 140.1 400 153.3V160C400 230.7 342.7 288 272 288H176C140.7 288 112 316.7 112 352V358.7C140.3 371 160 399.2 160 432C160 476.2 124.2 512 80 512C35.82 512 0 476.2 0 432C0 399.2 19.75 371 48 358.7V153.3C19.75 140.1 0 112.8 0 80C0 35.82 35.82 0 80 0C124.2 0 160 35.82 160 80V80zM80 104C93.25 104 104 93.25 104 80C104 66.75 93.25 56 80 56C66.75 56 56 66.75 56 80C56 93.25 66.75 104 80 104zM368 56C354.7 56 344 66.75 344 80C344 93.25 354.7 104 368 104C381.3 104 392 93.25 392 80C392 66.75 381.3 56 368 56zM80 456C93.25 456 104 445.3 104 432C104 418.7 93.25 408 80 408C66.75 408 56 418.7 56 432C56 445.3 66.75 456 80 456z"/></svg>

<svg xmlns="http://www.w3.org/2000/svg" viewBox="0 0 448 512"><!--! Font Awesome Free 6.5.2 by @fontawesome - https://fontawesome.com License - https://fontawesome.com/license/free (Icons: CC BY 4.0, Fonts: SIL OFL 1.1, Code: MIT License) Copyright 2024 Fonticons, Inc. --><path d="M80 104a24 24 0 1 0 0-48 24 24 0 1 0 0 48zm80-24c0 32.8-19.7 61-48 73.3v87.8c18.8-10.9 40.7-17.1 64-17.1h96c35.3 0 64-28.7 64-64v-6.7C307.7 141 288 112.8 288 80c0-44.2 35.8-80 80-80s80 35.8 80 80c0 32.8-19.7 61-48 73.3V160c0 70.7-57.3 128-128 128H176c-35.3 0-64 28.7-64 64v6.7c28.3 12.3 48 40.5 48 73.3c0 44.2-35.8 80-80 80s-80-35.8-80-80c0-32.8 19.7-61 48-73.3V352 153.3C19.7 141 0 112.8 0 80C0 35.8 35.8 0 80 0s80 35.8 80 80zm232 0a24 24 0 1 0 -48 0 24 24 0 1 0 48 0zM80 456a24 24 0 1 0 0-48 24 24 0 1 0 0 48z"/></svg>
